;FLAVOR:Marlin
;TIME:8748
;Filament used: 6.0887m
;Layer height: 0.2
;MINX:56
;MINY:63
;MINZ:0.2
;MAXX:174
;MAXY:167
;MAXZ:4.6
;Generated with Cura_SteamEngine 4.7.1
M82 ;absolute extrusion mode
; Ender 3 Custom Start G-code
M140 S50.0 ; Set Heat Bed temperature
M190 S50.0 ; Wait for Heat Bed temperature
M104 S160; preheat extruder to 160
G28 ; Home all axes
G29 ; Auto bed-level (BL-Touch)
M104 S205.0 ; Set Extruder temperature
M109 S205.0 ; Wait for Extruder temperature
G1 X0.1 Y0.1 Z20 F5000.0 ; Move bottom left corner 20mm off bed for user to address any oozing before print
;M300 S1000 P500 ; chirp once to signal extruder now at temp and print has started
G1 Z2.0 F3000 ; Lower Z axis down to bed
G1 X0.1 Y20 Z0.3 F5000.0 ; Move to start position
G92 E0 ; Reset Extruder
G1 X0.1 Y200.0 Z0.3 F1500.0 E15 ; Draw the first line
G1 X0.4 Y200.0 Z0.3 F5000.0 ; Move to side a little
G1 X0.4 Y20 Z0.3 F1500.0 E30 ; Draw the second line
G92 E0 ; Reset Extruder
G1 Z2.0 F3000 ; Move Z Axis up little to prevent scratching of Heat Bed
G1 X5 Y20 Z0.3 F5000.0 ; Move over to prevent blob squish
G92 E0
G92 E0
G1 F3000 E-5
;LAYER_COUNT:23
;LAYER:0
M107
G0 F6000 X59.886 Y65.627 Z0.2
;TYPE:SKIRT
G1 F3000 E0
G1 F1200 X60.626 Y65.051 E0.03119
G1 X61.412 Y64.539 E0.06239
G1 X62.239 Y64.097 E0.09358
G1 X63.101 Y63.727 E0.12478
G1 X63.991 Y63.431 E0.15597
G1 X64.903 Y63.213 E0.18716
G1 X65.83 Y63.072 E0.21835
G1 X66.701 Y63.013 E0.24738
G1 X67.022 Y63.004 E0.25806
G1 X67.33 Y63 E0.26831
G1 X162.293 Y63 E3.42679
G1 X162.451 Y63.001 E3.43205
G1 X163.149 Y63.011 E3.45526
G1 X164.085 Y63.065 E3.48645
G1 X165.013 Y63.197 E3.51762
G1 X165.927 Y63.409 E3.54883
G1 X166.819 Y63.698 E3.58002
G1 X167.684 Y64.061 E3.61122
G1 X168.514 Y64.497 E3.6424
G1 X169.305 Y65.002 E3.67361
G1 X170.049 Y65.573 E3.70481
G1 X170.742 Y66.205 E3.736
G1 X171.379 Y66.893 E3.76719
G1 X171.954 Y67.634 E3.79838
G1 X172.465 Y68.42 E3.82956
G1 X172.907 Y69.248 E3.86078
G1 X173.276 Y70.11 E3.89197
G1 X173.571 Y71 E3.92315
G1 X173.789 Y71.912 E3.95434
G1 X173.929 Y72.84 E3.98556
G1 X173.987 Y73.701 E4.01426
G1 X173.996 Y74.021 E4.02491
G1 X174 Y74.33 E4.03518
G1 X174 Y155.264 E6.72706
G1 X173.99 Y156.127 E6.75577
G1 X173.939 Y157.064 E6.78698
G1 X173.807 Y157.992 E6.81815
G1 X173.598 Y158.906 E6.84934
G1 X173.311 Y159.799 E6.88053
G1 X172.949 Y160.665 E6.91175
G1 X172.515 Y161.496 E6.94293
G1 X172.011 Y162.287 E6.97413
G1 X171.442 Y163.032 E7.00531
G1 X170.811 Y163.727 E7.03653
G1 X170.124 Y164.365 E7.06771
G1 X169.385 Y164.942 E7.0989
G1 X168.599 Y165.454 E7.1301
G1 X167.773 Y165.897 E7.16127
G1 X166.911 Y166.269 E7.1925
G1 X166.022 Y166.565 E7.22366
G1 X165.11 Y166.785 E7.25487
G1 X164.183 Y166.926 E7.28605
G1 X163.299 Y166.987 E7.31552
G1 X162.978 Y166.996 E7.32621
G1 X162.67 Y167 E7.33645
G1 X67.707 Y167 E10.49493
G1 X66.867 Y166.99 E10.52287
G1 X65.931 Y166.938 E10.55405
G1 X65.002 Y166.806 E10.58526
G1 X64.088 Y166.596 E10.61645
G1 X63.195 Y166.309 E10.64765
G1 X62.33 Y165.946 E10.67885
G1 X61.499 Y165.512 E10.71003
G1 X60.708 Y165.008 E10.74123
G1 X59.963 Y164.438 E10.77243
G1 X59.269 Y163.807 E10.80362
G1 X58.632 Y163.12 E10.83479
G1 X58.055 Y162.38 E10.866
G1 X57.543 Y161.594 E10.8972
G1 X57.1 Y160.767 E10.9284
G1 X56.729 Y159.906 E10.95958
G1 X56.433 Y159.016 E10.99078
G1 X56.214 Y158.104 E11.02197
G1 X56.073 Y157.177 E11.05316
G1 X56.013 Y156.288 E11.0828
G1 X56.004 Y155.955 E11.09387
G1 X56 Y155.658 E11.10375
G1 X56 Y74.674 E13.79729
G1 X56.01 Y73.86 E13.82437
G1 X56.063 Y72.924 E13.85555
G1 X56.195 Y71.995 E13.88676
G1 X56.406 Y71.081 E13.91796
G1 X56.694 Y70.189 E13.94913
G1 X57.057 Y69.324 E13.98034
G1 X57.492 Y68.493 E14.01153
G1 X57.996 Y67.703 E14.0427
G1 X58.566 Y66.958 E14.0739
G1 X59.198 Y66.264 E14.10512
G1 X59.886 Y65.627 E14.1363
G0 F6000 X60.274 Y65.823
G1 F1200 X61.01 Y65.27 E14.16692
G1 X61.791 Y64.782 E14.19755
G1 X62.611 Y64.364 E14.22817
G1 X63.465 Y64.019 E14.2588
G1 X64.345 Y63.749 E14.28942
G1 X65.245 Y63.557 E14.32002
G1 X66.159 Y63.443 E14.35066
G1 X66.712 Y63.413 E14.36908
G1 X67.033 Y63.404 E14.37976
G1 X67.33 Y63.4 E14.38964
G1 X162.293 Y63.4 E17.54812
G1 X163.143 Y63.411 E17.57639
G1 X164.062 Y63.464 E17.60701
G1 X164.973 Y63.597 E17.63763
G1 X165.869 Y63.808 E17.66825
G1 X166.743 Y64.096 E17.69885
G1 X167.59 Y64.459 E17.7295
G1 X168.401 Y64.894 E17.76011
G1 X169.171 Y65.398 E17.79072
G1 X169.895 Y65.967 E17.82135
G1 X170.567 Y66.597 E17.85199
G1 X171.182 Y67.282 E17.8826
G1 X171.735 Y68.018 E17.91322
G1 X172.222 Y68.799 E17.94384
G1 X172.639 Y69.62 E17.97446
G1 X172.984 Y70.474 E18.0051
G1 X173.253 Y71.354 E18.0357
G1 X173.445 Y72.255 E18.06634
G1 X173.558 Y73.168 E18.09694
G1 X173.587 Y73.712 E18.11506
G1 X173.596 Y74.032 E18.12571
G1 X173.6 Y74.33 E18.13562
G1 X173.6 Y155.264 E20.8275
G1 X173.59 Y156.122 E20.85604
G1 X173.539 Y157.041 E20.88665
G1 X173.408 Y157.953 E20.91729
G1 X173.198 Y158.849 E20.9479
G1 X172.912 Y159.724 E20.97852
G1 X172.551 Y160.571 E21.00914
G1 X172.117 Y161.383 E21.03977
G1 X171.615 Y162.155 E21.07039
G1 X171.047 Y162.88 E21.10103
G1 X170.419 Y163.553 E21.13164
G1 X169.735 Y164.169 E21.16226
G1 X169 Y164.723 E21.19287
G1 X168.22 Y165.212 E21.22349
G1 X167.4 Y165.631 E21.25412
G1 X166.547 Y165.977 E21.28473
G1 X165.667 Y166.248 E21.31536
G1 X164.767 Y166.441 E21.34597
G1 X163.853 Y166.556 E21.37661
G1 X163.288 Y166.587 E21.39543
G1 X162.967 Y166.596 E21.40612
G1 X162.67 Y166.6 E21.41599
G1 X67.707 Y166.6 E24.57448
G1 X66.872 Y166.59 E24.60225
G1 X65.953 Y166.538 E24.63287
G1 X65.042 Y166.407 E24.66348
G1 X64.146 Y166.197 E24.69409
G1 X63.271 Y165.91 E24.72471
G1 X62.424 Y165.548 E24.75535
G1 X61.612 Y165.114 E24.78597
G1 X60.841 Y164.612 E24.81657
G1 X60.116 Y164.044 E24.84721
G1 X59.443 Y163.415 E24.87784
G1 X58.828 Y162.731 E24.90844
G1 X58.274 Y161.996 E24.93905
G1 X57.786 Y161.215 E24.96968
G1 X57.367 Y160.395 E25.00031
G1 X57.021 Y159.542 E25.03092
G1 X56.751 Y158.662 E25.06154
G1 X56.558 Y157.761 E25.09219
G1 X56.444 Y156.848 E25.12279
G1 X56.413 Y156.277 E25.14181
G1 X56.404 Y155.944 E25.15289
G1 X56.4 Y155.658 E25.1624
G1 X56.4 Y74.674 E27.85594
G1 X56.41 Y73.866 E27.88282
G1 X56.462 Y72.946 E27.91347
G1 X56.594 Y72.035 E27.94408
G1 X56.805 Y71.139 E27.9747
G1 X57.092 Y70.264 E28.00533
G1 X57.455 Y69.418 E28.03595
G1 X57.889 Y68.606 E28.06657
G1 X58.392 Y67.835 E28.09719
G1 X58.961 Y67.111 E28.12781
G1 X59.589 Y66.439 E28.1584
G1 X60.274 Y65.823 E28.18905
G0 F6000 X60.662 Y66.024
G1 F1200 X61.394 Y65.494 E28.2191
G1 X62.169 Y65.031 E28.24913
G1 X62.982 Y64.638 E28.27916
G1 X63.827 Y64.318 E28.30922
G1 X64.696 Y64.075 E28.33923
G1 X65.584 Y63.909 E28.36927
G1 X66.723 Y63.813 E28.40729
G1 X67.044 Y63.804 E28.41797
G1 X67.33 Y63.8 E28.42749
G1 X162.293 Y63.8 E31.58597
G1 X163.137 Y63.811 E31.61404
G1 X164.039 Y63.864 E31.64409
G1 X164.932 Y63.996 E31.67412
G1 X165.81 Y64.207 E31.70415
G1 X166.666 Y64.495 E31.73419
G1 X167.493 Y64.857 E31.76422
G1 X168.285 Y65.292 E31.79427
G1 X169.036 Y65.794 E31.82432
G1 X169.739 Y66.361 E31.85436
G1 X170.389 Y66.988 E31.88439
G1 X170.981 Y67.67 E31.91443
G1 X171.511 Y68.401 E31.94446
G1 X171.973 Y69.177 E31.9745
G1 X172.366 Y69.99 E32.00453
G1 X172.684 Y70.835 E32.03456
G1 X172.927 Y71.705 E32.06461
G1 X173.092 Y72.593 E32.09465
G1 X173.187 Y73.723 E32.13236
G1 X173.196 Y74.043 E32.14301
G1 X173.2 Y74.33 E32.15256
G1 X173.2 Y155.264 E34.84443
G1 X173.19 Y156.117 E34.87281
G1 X173.139 Y157.019 E34.90285
G1 X173.008 Y157.913 E34.93291
G1 X172.799 Y158.791 E34.96293
G1 X172.513 Y159.648 E34.99297
G1 X172.152 Y160.476 E35.02302
G1 X171.72 Y161.268 E35.05302
G1 X171.219 Y162.02 E35.08308
G1 X170.653 Y162.724 E35.11312
G1 X170.028 Y163.375 E35.14314
G1 X169.347 Y163.969 E35.17319
G1 X168.616 Y164.5 E35.20324
G1 X167.842 Y164.964 E35.23326
G1 X167.029 Y165.358 E35.26331
G1 X166.185 Y165.678 E35.29333
G1 X165.315 Y165.923 E35.32339
G1 X164.428 Y166.089 E35.3534
G1 X163.277 Y166.187 E35.39183
G1 X162.956 Y166.196 E35.40251
G1 X162.67 Y166.2 E35.41202
G1 X67.707 Y166.2 E38.5705
G1 X66.877 Y166.19 E38.59811
G1 X65.976 Y166.139 E38.62813
G1 X65.082 Y166.007 E38.65818
G1 X64.204 Y165.798 E38.6882
G1 X63.347 Y165.511 E38.71826
G1 X62.52 Y165.15 E38.74827
G1 X61.727 Y164.717 E38.77832
G1 X60.976 Y164.216 E38.80835
G1 X60.272 Y163.65 E38.83839
G1 X59.621 Y163.024 E38.86843
G1 X59.028 Y162.343 E38.89847
G1 X58.498 Y161.612 E38.9285
G1 X58.034 Y160.837 E38.95854
G1 X57.64 Y160.024 E38.98859
G1 X57.32 Y159.18 E39.01861
G1 X57.076 Y158.31 E39.04866
G1 X56.91 Y157.422 E39.07871
G1 X56.813 Y156.267 E39.11726
G1 X56.804 Y155.934 E39.12834
G1 X56.8 Y155.658 E39.13752
G1 X56.8 Y74.674 E41.83106
G1 X56.81 Y73.871 E41.85777
G1 X56.862 Y72.969 E41.88782
G1 X56.994 Y72.076 E41.91785
G1 X57.204 Y71.198 E41.94787
G1 X57.491 Y70.341 E41.97793
G1 X57.853 Y69.514 E42.00796
G1 X58.286 Y68.722 E42.03798
G1 X58.788 Y67.971 E42.06802
G1 X59.355 Y67.267 E42.09809
G1 X59.981 Y66.617 E42.1281
G1 X60.662 Y66.024 E42.15814
G1 F3000 E37.15814
;MESH:Base.stl
G0 F6000 X125.722 Y111.211
G0 X125.785 Y112.454
G0 X127.584 Y112.504
G0 X133.978 Y116.945
G0 X134.04 Y126.551
G0 X137.814 Y126.551
G0 X137.875 Y119.651
G0 X155.673 Y132.014
G0 X154.218 Y131.943
G0 X154.614 Y137.458
G0 X154.753 Y137.917
G0 X154.979 Y138.34
G0 X155.064 Y138.444
G0 X156.013 Y139.388
;TYPE:WALL-INNER
G1 F3000 E42.15814
G1 F1200 X156.502 Y139.536 E42.17513
G1 X157.009 Y139.586 E42.19208
G1 X157.516 Y139.536 E42.20902
G1 X158.005 Y139.388 E42.22601
G1 X158.456 Y139.147 E42.24302
G1 X158.849 Y138.823 E42.25996
G1 X159.173 Y138.43 E42.2769
G1 X159.414 Y137.979 E42.29391
G1 X159.562 Y137.49 E42.3109
G1 X159.609 Y137.012 E42.32688
G1 X159.608 Y131.94 E42.49557
G1 X159.562 Y131.476 E42.51108
G1 X159.414 Y130.987 E42.52807
G1 X159.173 Y130.536 E42.54508
G1 X158.849 Y130.143 E42.56202
G1 X158.456 Y129.819 E42.57896
G1 X158.005 Y129.578 E42.59597
G1 X157.516 Y129.43 E42.61296
G1 X157.009 Y129.38 E42.62991
G1 X156.502 Y129.43 E42.64685
G1 X156.013 Y129.578 E42.66385
G1 X155.562 Y129.819 E42.68085
G1 X155.169 Y130.143 E42.69779
G1 X154.845 Y130.536 E42.71473
G1 X154.604 Y130.987 E42.73174
G1 X154.456 Y131.476 E42.74874
G1 X154.409 Y131.953 E42.76468
G1 X154.409 Y137.013 E42.93297
G1 X154.456 Y137.49 E42.94892
G1 X154.604 Y137.979 E42.96591
G1 X154.845 Y138.43 E42.98292
G1 X155.169 Y138.823 E42.99986
G1 X155.562 Y139.147 E43.0168
G1 X156.013 Y139.388 E43.0338
G0 F6000 X156.167 Y139.017
;TYPE:WALL-OUTER
G1 F1200 X156.58 Y139.142 E43.04816
G1 X157.009 Y139.184 E43.06249
G1 X157.438 Y139.142 E43.07683
G1 X157.851 Y139.017 E43.09118
G1 X158.232 Y138.813 E43.10556
G1 X158.565 Y138.539 E43.1199
G1 X158.839 Y138.206 E43.13424
G1 X159.043 Y137.825 E43.14862
G1 X159.168 Y137.412 E43.16297
G1 X159.209 Y136.993 E43.17697
G1 X159.208 Y131.96 E43.34437
G1 X159.168 Y131.554 E43.35794
G1 X159.043 Y131.141 E43.37229
G1 X158.839 Y130.76 E43.38666
G1 X158.565 Y130.427 E43.40101
G1 X158.232 Y130.153 E43.41535
G1 X157.851 Y129.949 E43.42972
G1 X157.438 Y129.824 E43.44408
G1 X157.009 Y129.782 E43.45841
G1 X156.58 Y129.824 E43.47275
G1 X156.167 Y129.949 E43.4871
G1 X155.786 Y130.153 E43.50148
G1 X155.453 Y130.427 E43.51582
G1 X155.179 Y130.76 E43.53016
G1 X154.975 Y131.141 E43.54454
G1 X154.85 Y131.554 E43.55889
G1 X154.809 Y131.973 E43.57289
G1 X154.809 Y136.993 E43.73986
G1 X154.85 Y137.412 E43.75386
G1 X154.975 Y137.825 E43.76821
G1 X155.179 Y138.206 E43.78259
G1 X155.453 Y138.539 E43.79693
G1 X155.786 Y138.813 E43.81127
G1 X156.167 Y139.017 E43.82565
G0 F6000 X155.999 Y139.423
G1 F3000 E38.82565
G0 F6000 X154.979 Y138.34
G0 X154.753 Y137.917
G0 X154.614 Y137.458
G0 X154.57 Y137.004
G0 X154.57 Y131.962
G0 X154.614 Y131.508
G0 X154.753 Y131.049
G0 X154.88 Y130.81
G0 X155.939 Y129.401
G0 X156.226 Y126.544
G0 X155.504 Y126.18
;TYPE:WALL-INNER
G1 F3000 E43.82565
G1 F1200 X155.992 Y126.328 E43.84261
G1 X156.5 Y126.379 E43.85959
G1 X157.009 Y126.328 E43.8766
G1 X157.497 Y126.18 E43.89356
G1 X157.945 Y125.939 E43.91048
G1 X158.341 Y125.617 E43.92746
G1 X158.664 Y125.222 E43.94443
G1 X158.905 Y124.772 E43.96141
G1 X159.053 Y124.283 E43.9784
G1 X159.1 Y123.806 E43.99434
G1 X159.099 Y88.732 E45.16091
G1 X159.053 Y88.268 E45.17642
G1 X158.905 Y87.779 E45.19341
G1 X158.664 Y87.329 E45.21039
G1 X158.341 Y86.934 E45.22736
G1 X157.945 Y86.612 E45.24433
G1 X157.497 Y86.371 E45.26125
G1 X157.009 Y86.223 E45.27821
G1 X156.5 Y86.172 E45.29523
G1 X155.992 Y86.223 E45.31221
G1 X155.504 Y86.371 E45.32917
G1 X155.054 Y86.612 E45.34615
G1 X154.66 Y86.935 E45.36309
G1 X154.336 Y87.329 E45.38006
G1 X154.096 Y87.78 E45.39705
G1 X153.948 Y88.267 E45.41398
G1 X153.9 Y88.745 E45.42996
G1 X153.901 Y123.819 E46.59653
G1 X153.948 Y124.284 E46.61207
G1 X154.096 Y124.771 E46.629
G1 X154.336 Y125.222 E46.64599
G1 X154.66 Y125.616 E46.66296
G1 X155.054 Y125.939 E46.6799
G1 X155.504 Y126.18 E46.69688
G0 F6000 X155.658 Y125.809
;TYPE:WALL-OUTER
G1 F1200 X156.071 Y125.934 E46.71123
G1 X156.5 Y125.977 E46.72557
G1 X156.93 Y125.934 E46.73995
G1 X157.343 Y125.809 E46.7543
G1 X157.722 Y125.605 E46.76861
G1 X158.057 Y125.332 E46.78299
G1 X158.33 Y124.999 E46.79731
G1 X158.534 Y124.618 E46.81168
G1 X158.659 Y124.205 E46.82604
G1 X158.7 Y123.786 E46.84004
G1 X158.699 Y88.752 E48.00527
G1 X158.659 Y88.346 E48.01884
G1 X158.534 Y87.933 E48.0332
G1 X158.33 Y87.552 E48.04757
G1 X158.057 Y87.219 E48.06189
G1 X157.722 Y86.946 E48.07626
G1 X157.343 Y86.742 E48.09058
G1 X156.93 Y86.617 E48.10493
G1 X156.5 Y86.574 E48.11931
G1 X156.071 Y86.617 E48.13365
G1 X155.658 Y86.742 E48.148
G1 X155.277 Y86.946 E48.16237
G1 X154.944 Y87.219 E48.17669
G1 X154.67 Y87.552 E48.19104
G1 X154.467 Y87.933 E48.20539
G1 X154.342 Y88.346 E48.21975
G1 X154.3 Y88.765 E48.23375
G1 X154.301 Y123.799 E49.39899
G1 X154.342 Y124.205 E49.41256
G1 X154.467 Y124.618 E49.42691
G1 X154.67 Y124.999 E49.44127
G1 X154.944 Y125.332 E49.45561
G1 X155.277 Y125.605 E49.46994
G1 X155.658 Y125.809 E49.48431
G0 F6000 X155.49 Y126.215
G1 F3000 E44.48431
G0 F6000 X154.176 Y125.328
G0 X155.392 Y124.515
G0 X137.802 Y125.328
G0 X139.257 Y125.328
G0 X138.895 Y127.632
G0 X132.787 Y127.804
;TYPE:WALL-INNER
G1 F3000 E49.48431
G1 F1200 X139.067 Y127.804 E49.69318
G1 X139.067 Y93.584 E50.83135
G1 X132.787 Y93.584 E51.04022
G1 X132.787 Y127.804 E52.17838
G0 F6000 X133.187 Y127.404
;TYPE:WALL-OUTER
G1 F1200 X138.667 Y127.404 E52.36065
G1 X138.667 Y93.984 E53.4722
G1 X133.187 Y93.984 E53.65447
G1 X133.187 Y127.404 E54.76602
G1 F3000 E49.76602
G0 F6000 X132.887 Y127.404
G0 X132.597 Y113.707
G0 X131.002 Y113.707
G0 X124.532 Y113.707
;TYPE:WALL-INNER
G1 F3000 E54.76602
G1 F1200 X130.812 Y113.707 E54.97489
G1 X130.812 Y105.776 E55.23868
G1 X124.532 Y105.776 E55.44755
G1 X124.532 Y113.707 E55.71134
G0 F6000 X124.932 Y113.307
;TYPE:WALL-OUTER
G1 F1200 X130.412 Y113.307 E55.8936
G1 X130.412 Y106.176 E56.13078
G1 X124.932 Y106.176 E56.31305
G1 X124.932 Y113.307 E56.55023
G1 F3000 E51.55023
G0 F6000 X124.632 Y113.307
G0 X124.362 Y109.643
G0 X125.797 Y109.643
G0 X138.312 Y81.706
G0 X137.761 Y83.058
G0 X138.313 Y83.025
;TYPE:WALL-INNER
G1 F3000 E56.55023
G1 F1200 X138.791 Y83.073 E56.5662
G1 X158.864 Y83.072 E57.23384
G1 X159.328 Y83.025 E57.24935
G1 X159.816 Y82.879 E57.26629
G1 X160.268 Y82.637 E57.28334
G1 X160.661 Y82.313 E57.30028
G1 X160.985 Y81.919 E57.31725
G1 X161.225 Y81.468 E57.33424
G1 X161.373 Y80.981 E57.35117
G1 X161.424 Y80.473 E57.36815
G1 X161.373 Y79.965 E57.38513
G1 X161.225 Y79.478 E57.40206
G1 X160.985 Y79.027 E57.41905
G1 X160.661 Y78.633 E57.43602
G1 X160.268 Y78.309 E57.45296
G1 X159.817 Y78.068 E57.46997
