;FLAVOR:Marlin
;TIME:7435
;Filament used: 4.30976m
;Layer height: 0.2
;MINX:55.3
;MINY:63.682
;MINZ:0.2
;MAXX:174.7
;MAXY:150.082
;MAXZ:12.2
;Generated with Cura_SteamEngine 4.7.1
M82 ;absolute extrusion mode
; Ender 3 Custom Start G-code
M140 S50.0 ; Set Heat Bed temperature
M190 S50.0 ; Wait for Heat Bed temperature
M104 S160; preheat extruder to 160
G28 ; Home all axes
G29 ; Auto bed-level (BL-Touch)
M104 S225 ; Set Extruder temperature
M109 S225 ; Wait for Extruder temperature
G1 X0.1 Y0.1 Z20 F5000.0 ; Move bottom left corner 20mm off bed for user to address any oozing before print
;M300 S1000 P500 ; chirp once to signal extruder now at temp and print has started
G1 Z2.0 F3000 ; Lower Z axis down to bed
G1 X0.1 Y20 Z0.3 F5000.0 ; Move to start position
G92 E0 ; Reset Extruder
G1 X0.1 Y200.0 Z0.3 F1500.0 E15 ; Draw the first line
G1 X0.4 Y200.0 Z0.3 F5000.0 ; Move to side a little
G1 X0.4 Y20 Z0.3 F1500.0 E30 ; Draw the second line
G92 E0 ; Reset Extruder
G1 Z2.0 F3000 ; Move Z Axis up little to prevent scratching of Heat Bed
G1 X5 Y20 Z0.3 F5000.0 ; Move over to prevent blob squish
G92 E0
G92 E0
G1 F3000 E-5
;LAYER_COUNT:61
;LAYER:0
M107
G0 F6000 X59.186 Y66.309 Z0.2
;TYPE:SKIRT
G1 F3000 E0
G1 F1200 X59.926 Y65.733 E0.03119
G1 X60.712 Y65.221 E0.06239
G1 X61.539 Y64.779 E0.09358
G1 X62.401 Y64.409 E0.12478
G1 X63.291 Y64.113 E0.15597
G1 X64.203 Y63.895 E0.18716
G1 X65.13 Y63.754 E0.21835
G1 X66.001 Y63.695 E0.24738
G1 X66.322 Y63.686 E0.25806
G1 X66.63 Y63.682 E0.26831
G1 X162.993 Y63.682 E3.47336
G1 X163.151 Y63.683 E3.47861
G1 X163.849 Y63.693 E3.50183
G1 X164.785 Y63.747 E3.53301
G1 X165.713 Y63.879 E3.56419
G1 X166.627 Y64.091 E3.5954
G1 X167.519 Y64.38 E3.62658
G1 X168.384 Y64.743 E3.65778
G1 X169.214 Y65.179 E3.68897
G1 X170.005 Y65.684 E3.72018
G1 X170.749 Y66.255 E3.75137
G1 X171.442 Y66.887 E3.78257
G1 X172.079 Y67.575 E3.81375
G1 X172.654 Y68.316 E3.84495
G1 X173.165 Y69.102 E3.87613
G1 X173.607 Y69.93 E3.90735
G1 X173.976 Y70.792 E3.93853
G1 X174.271 Y71.682 E3.96972
G1 X174.489 Y72.594 E4.00091
G1 X174.629 Y73.522 E4.03212
G1 X174.687 Y74.383 E4.06082
G1 X174.696 Y74.703 E4.07147
G1 X174.7 Y75.012 E4.08175
G1 X174.7 Y138.346 E6.18825
G1 X174.69 Y139.209 E6.21695
G1 X174.639 Y140.146 E6.24816
G1 X174.507 Y141.074 E6.27934
G1 X174.298 Y141.988 E6.31052
G1 X174.011 Y142.881 E6.34172
G1 X173.649 Y143.747 E6.37294
G1 X173.215 Y144.578 E6.40412
G1 X172.711 Y145.369 E6.43532
G1 X172.142 Y146.114 E6.46649
G1 X171.511 Y146.809 E6.49772
G1 X170.824 Y147.447 E6.5289
G1 X170.085 Y148.024 E6.56008
G1 X169.299 Y148.536 E6.59128
G1 X168.473 Y148.979 E6.62246
G1 X167.611 Y149.351 E6.65368
G1 X166.722 Y149.647 E6.68485
G1 X165.81 Y149.867 E6.71605
G1 X164.883 Y150.008 E6.74724
G1 X163.999 Y150.069 E6.77671
G1 X163.678 Y150.078 E6.78739
G1 X163.37 Y150.082 E6.79764
G1 X67.007 Y150.082 E10.00268
G1 X66.167 Y150.072 E10.03062
G1 X65.231 Y150.02 E10.0618
G1 X64.302 Y149.888 E10.09301
G1 X63.388 Y149.678 E10.1242
G1 X62.495 Y149.391 E10.1554
G1 X61.63 Y149.028 E10.1866
G1 X60.799 Y148.594 E10.21778
G1 X60.008 Y148.09 E10.24898
G1 X59.263 Y147.52 E10.28018
G1 X58.569 Y146.889 E10.31137
G1 X57.932 Y146.202 E10.34254
G1 X57.355 Y145.462 E10.37375
G1 X56.843 Y144.676 E10.40495
G1 X56.4 Y143.849 E10.43615
G1 X56.029 Y142.988 E10.46733
G1 X55.733 Y142.098 E10.49853
G1 X55.514 Y141.186 E10.52972
G1 X55.373 Y140.259 E10.56091
G1 X55.313 Y139.37 E10.59055
G1 X55.304 Y139.037 E10.60162
G1 X55.3 Y138.74 E10.6115
G1 X55.3 Y75.356 E12.71966
G1 X55.31 Y74.542 E12.74674
G1 X55.363 Y73.606 E12.77792
G1 X55.495 Y72.677 E12.80913
G1 X55.706 Y71.763 E12.84033
G1 X55.994 Y70.871 E12.87151
G1 X56.357 Y70.006 E12.90271
G1 X56.792 Y69.175 E12.9339
G1 X57.296 Y68.385 E12.96507
G1 X57.866 Y67.64 E12.99627
G1 X58.498 Y66.946 E13.02749
G1 X59.186 Y66.309 E13.05868
G0 F6000 X59.574 Y66.505
G1 F1200 X60.31 Y65.952 E13.08929
G1 X61.091 Y65.464 E13.11992
G1 X61.911 Y65.046 E13.15054
G1 X62.765 Y64.701 E13.18117
G1 X63.645 Y64.431 E13.21179
G1 X64.545 Y64.239 E13.24239
G1 X65.459 Y64.125 E13.27303
G1 X66.012 Y64.095 E13.29145
G1 X66.333 Y64.086 E13.30213
G1 X66.63 Y64.082 E13.31201
G1 X162.993 Y64.082 E16.51706
G1 X163.843 Y64.093 E16.54533
G1 X164.762 Y64.146 E16.57595
G1 X165.673 Y64.279 E16.60657
G1 X166.569 Y64.49 E16.63718
G1 X167.443 Y64.778 E16.66779
G1 X168.29 Y65.141 E16.69844
G1 X169.101 Y65.576 E16.72905
G1 X169.871 Y66.08 E16.75966
G1 X170.595 Y66.649 E16.79029
G1 X171.267 Y67.279 E16.82092
G1 X171.882 Y67.964 E16.85154
G1 X172.435 Y68.7 E16.88216
G1 X172.922 Y69.481 E16.91277
G1 X173.339 Y70.302 E16.9434
G1 X173.684 Y71.156 E16.97403
G1 X173.953 Y72.036 E17.00464
G1 X174.145 Y72.937 E17.03528
G1 X174.258 Y73.85 E17.06588
G1 X174.287 Y74.394 E17.084
G1 X174.296 Y74.714 E17.09464
G1 X174.3 Y75.012 E17.10456
G1 X174.3 Y138.346 E19.21105
G1 X174.29 Y139.204 E19.23959
G1 X174.239 Y140.123 E19.27021
G1 X174.108 Y141.035 E19.30085
G1 X173.898 Y141.931 E19.33146
G1 X173.612 Y142.806 E19.36208
G1 X173.251 Y143.653 E19.3927
G1 X172.817 Y144.465 E19.42332
G1 X172.315 Y145.237 E19.45395
G1 X171.747 Y145.962 E19.48458
G1 X171.119 Y146.635 E19.5152
G1 X170.435 Y147.251 E19.54582
G1 X169.7 Y147.805 E19.57643
G1 X168.92 Y148.294 E19.60705
G1 X168.1 Y148.713 E19.63768
G1 X167.247 Y149.059 E19.66829
G1 X166.367 Y149.33 E19.69892
G1 X165.467 Y149.523 E19.72953
G1 X164.553 Y149.638 E19.76017
G1 X163.988 Y149.669 E19.77899
G1 X163.667 Y149.678 E19.78967
G1 X163.37 Y149.682 E19.79955
G1 X67.007 Y149.682 E23.0046
G1 X66.172 Y149.672 E23.03237
G1 X65.253 Y149.62 E23.06299
G1 X64.342 Y149.489 E23.0936
G1 X63.446 Y149.279 E23.12421
G1 X62.571 Y148.992 E23.15484
G1 X61.724 Y148.63 E23.18547
G1 X60.912 Y148.196 E23.21609
G1 X60.141 Y147.694 E23.24669
G1 X59.416 Y147.126 E23.27733
G1 X58.743 Y146.497 E23.30797
G1 X58.128 Y145.813 E23.33856
G1 X57.574 Y145.078 E23.36917
G1 X57.086 Y144.297 E23.3998
G1 X56.667 Y143.477 E23.43043
G1 X56.321 Y142.624 E23.46105
G1 X56.051 Y141.744 E23.49166
G1 X55.858 Y140.843 E23.52231
G1 X55.744 Y139.93 E23.55291
G1 X55.713 Y139.359 E23.57193
G1 X55.704 Y139.026 E23.58301
G1 X55.7 Y138.74 E23.59252
G1 X55.7 Y75.356 E25.70068
G1 X55.71 Y74.548 E25.72756
G1 X55.762 Y73.628 E25.75821
G1 X55.894 Y72.717 E25.78882
G1 X56.105 Y71.821 E25.81944
G1 X56.392 Y70.946 E25.85007
G1 X56.755 Y70.1 E25.88069
G1 X57.189 Y69.288 E25.91131
G1 X57.692 Y68.517 E25.94193
G1 X58.261 Y67.793 E25.97256
G1 X58.889 Y67.121 E26.00315
G1 X59.574 Y66.505 E26.03379
G0 F6000 X59.962 Y66.706
G1 F1200 X60.694 Y66.176 E26.06385
G1 X61.469 Y65.713 E26.09387
G1 X62.282 Y65.32 E26.12391
G1 X63.127 Y65 E26.15396
G1 X63.996 Y64.757 E26.18397
G1 X64.884 Y64.591 E26.21402
G1 X66.023 Y64.495 E26.25204
G1 X66.344 Y64.486 E26.26272
G1 X66.63 Y64.482 E26.27223
G1 X162.993 Y64.482 E29.47728
G1 X163.837 Y64.493 E29.50535
G1 X164.739 Y64.546 E29.5354
G1 X165.632 Y64.678 E29.56543
G1 X166.51 Y64.889 E29.59546
G1 X167.366 Y65.177 E29.6255
G1 X168.193 Y65.539 E29.65553
G1 X168.985 Y65.974 E29.68558
G1 X169.736 Y66.476 E29.71562
G1 X170.439 Y67.043 E29.74566
G1 X171.089 Y67.67 E29.7757
G1 X171.681 Y68.352 E29.80574
G1 X172.211 Y69.083 E29.83577
G1 X172.673 Y69.859 E29.86581
G1 X173.066 Y70.672 E29.89584
G1 X173.384 Y71.517 E29.92587
G1 X173.627 Y72.387 E29.95591
G1 X173.792 Y73.275 E29.98595
G1 X173.887 Y74.405 E30.02367
G1 X173.896 Y74.725 E30.03432
G1 X173.9 Y75.012 E30.04387
G1 X173.9 Y138.346 E32.15036
G1 X173.89 Y139.199 E32.17874
G1 X173.839 Y140.101 E32.20878
G1 X173.708 Y140.995 E32.23884
G1 X173.499 Y141.873 E32.26885
G1 X173.213 Y142.73 E32.2989
G1 X172.852 Y143.558 E32.32895
G1 X172.42 Y144.35 E32.35895
G1 X171.919 Y145.102 E32.38901
G1 X171.353 Y145.806 E32.41905
G1 X170.728 Y146.457 E32.44907
G1 X170.047 Y147.051 E32.47912
G1 X169.316 Y147.582 E32.50917
G1 X168.542 Y148.046 E32.53919
G1 X167.729 Y148.44 E32.56924
G1 X166.885 Y148.76 E32.59926
G1 X166.015 Y149.005 E32.62932
G1 X165.128 Y149.171 E32.65933
G1 X163.977 Y149.269 E32.69775
G1 X163.656 Y149.278 E32.70844
G1 X163.37 Y149.282 E32.71795
G1 X67.007 Y149.282 E35.923
G1 X66.177 Y149.272 E35.9506
G1 X65.276 Y149.221 E35.98062
G1 X64.382 Y149.089 E36.01068
G1 X63.504 Y148.88 E36.04069
G1 X62.647 Y148.593 E36.07075
G1 X61.82 Y148.232 E36.10077
G1 X61.027 Y147.799 E36.13082
G1 X60.276 Y147.298 E36.16084
G1 X59.572 Y146.732 E36.19089
G1 X58.921 Y146.106 E36.22093
G1 X58.328 Y145.425 E36.25096
G1 X57.798 Y144.694 E36.28099
G1 X57.334 Y143.919 E36.31104
G1 X56.94 Y143.106 E36.34108
G1 X56.62 Y142.262 E36.37111
G1 X56.376 Y141.392 E36.40116
G1 X56.21 Y140.504 E36.4312
G1 X56.113 Y139.349 E36.46976
G1 X56.104 Y139.016 E36.48083
G1 X56.1 Y138.74 E36.49002
G1 X56.1 Y75.356 E38.59818
G1 X56.11 Y74.553 E38.62489
G1 X56.162 Y73.651 E38.65494
G1 X56.294 Y72.758 E38.68496
G1 X56.504 Y71.88 E38.71499
G1 X56.791 Y71.023 E38.74505
G1 X57.153 Y70.196 E38.77507
G1 X57.586 Y69.404 E38.80509
G1 X58.088 Y68.653 E38.83514
G1 X58.655 Y67.949 E38.8652
G1 X59.281 Y67.299 E38.89522
G1 X59.962 Y66.706 E38.92525
G1 F3000 E33.92525
;MESH:PinHeaderJig.stl
G0 F6000 X88.419 Y118.755
G0 X89.854 Y118.755
G0 X89.866 Y124.648
G0 X98.073 Y125.002
G0 X98.245 Y136.54
;TYPE:WALL-INNER
G1 F3000 E38.92525
G1 F1200 X98.245 Y124.83 E39.31473
G1 X89.684 Y124.83 E39.59947
G1 X89.684 Y82.636 E41.00285
G1 X77.634 Y82.636 E41.40363
G1 X77.634 Y124.83 E42.80701
G1 X72.669 Y124.83 E42.97215
G1 X72.669 Y136.54 E43.36162
G1 X98.245 Y136.54 E44.21228
G0 F6000 X97.845 Y136.14
;TYPE:WALL-OUTER
G1 F1200 X97.845 Y125.23 E44.57515
G1 X89.284 Y125.23 E44.85989
G1 X89.284 Y83.036 E46.26327
G1 X78.034 Y83.036 E46.63745
G1 X78.034 Y125.23 E48.04082
G1 X73.069 Y125.23 E48.20596
G1 X73.069 Y136.14 E48.56883
G1 X97.845 Y136.14 E49.39288
G1 F3000 E44.39288
G0 F6000 X98.145 Y136.14
G0 X98.435 Y134.773
G0 X96.98 Y134.773
G0 X122.203 Y134.059
G0 X122.423 Y134.22
G0 X130.718 Y134.026
G0 X130.961 Y133.812
G0 X141.31 Y133.52
G0 X139.867 Y134.773
G0 X140.057 Y134.773
;TYPE:WALL-INNER
G1 F3000 E49.39288
G1 F1200 X156.625 Y134.773 E49.94394
G1 X156.625 Y93.476 E51.31748
G1 X140.057 Y93.476 E51.86853
G1 X140.057 Y134.773 E53.24208
G0 F6000 X140.457 Y134.373
;TYPE:WALL-OUTER
G1 F1200 X156.225 Y134.373 E53.76652
G1 X156.225 Y93.876 E55.11346
G1 X140.457 Y93.876 E55.63791
G1 X140.457 Y134.373 E56.98484
G1 F3000 E51.98484
G0 F6000 X140.157 Y134.373
G0 X139.887 Y132.846
G0 X141.322 Y132.846
G0 X129.984 Y134.78
G0 X130.92 Y135.895
G0 X128.498 Y136.846
G0 X127.799 Y136.997
G0 X125.928 Y137.294
;TYPE:WALL-INNER
G1 F3000 E56.98484
G1 F1200 X125.978 Y137.303 E56.98653
G1 X126.634 Y137.32 E57.00836
G1 X127.283 Y137.275 E57.02999
G1 X127.922 Y137.167 E57.05155
G1 X128.547 Y136.998 E57.07308
G1 X129.152 Y136.769 E57.0946
G1 X129.732 Y136.483 E57.11611
G1 X130.282 Y136.142 E57.13763
G1 X130.797 Y135.749 E57.15918
G1 X131.27 Y135.31 E57.18064
G1 X131.7 Y134.826 E57.20218
G1 X132.081 Y134.303 E57.2237
G1 X132.41 Y133.745 E57.24524
G1 X132.682 Y133.159 E57.26673
G1 X132.898 Y132.548 E57.28828
G1 X133.053 Y131.92 E57.3098
G1 X133.146 Y131.279 E57.33134
G1 X133.177 Y130.629 E57.35298
G1 X133.125 Y129.82 E57.37995
G1 X133.117 Y129.738 E57.38269
G1 X132.942 Y128.875 E57.41198
G1 X132.652 Y128.033 E57.44159
G1 X132.252 Y127.239 E57.47117
G1 X131.751 Y126.504 E57.50075
G1 X131.157 Y125.842 E57.53033
G1 X130.479 Y125.265 E57.55994
G1 X130.04 Y124.983 E57.5773
G1 X130.04 Y87.029 E58.83965
G1 X108.438 Y87.029 E59.55814
G1 X108.438 Y131.506 E61.03745
G1 X119.86 Y131.506 E61.41735
G1 X119.862 Y131.532 E61.41821
G1 X119.871 Y131.591 E61.4202
G1 X119.98 Y132.169 E61.43976
G1 X119.995 Y132.227 E61.44176
G1 X120.173 Y132.832 E61.46273
G1 X120.414 Y133.432 E61.48424
G1 X120.713 Y134.007 E61.50579
G1 X121.068 Y134.549 E61.52734
G1 X121.47 Y135.053 E61.54878
G1 X121.92 Y135.518 E61.57031
G1 X122.414 Y135.938 E61.59187
G1 X122.946 Y136.307 E61.61341
G1 X123.511 Y136.622 E61.63492
G1 X124.103 Y136.882 E61.65643
G1 X124.718 Y137.083 E61.67795
G1 X125.35 Y137.224 E61.69948
G1 X125.928 Y137.294 E61.71885
G0 F6000 X126.017 Y136.904
;TYPE:WALL-OUTER
G1 F1200 X126.625 Y136.92 E61.73908
G1 X127.236 Y136.877 E61.75945
G1 X127.836 Y136.776 E61.77969
G1 X128.424 Y136.617 E61.79995
G1 X128.992 Y136.402 E61.82015
G1 X129.538 Y136.133 E61.84039
G1 X130.055 Y135.812 E61.86063
G1 X130.539 Y135.443 E61.88087
G1 X130.984 Y135.03 E61.90107
G1 X131.388 Y134.575 E61.9213
G1 X131.746 Y134.083 E61.94154
G1 X132.055 Y133.559 E61.96177
G1 X132.311 Y133.008 E61.98198
G1 X132.514 Y132.433 E62.00226
G1 X132.66 Y131.843 E62.02248
G1 X132.747 Y131.241 E62.04271
G1 X132.776 Y130.632 E62.06299
G1 X132.726 Y129.851 E62.08902
G1 X132.721 Y129.796 E62.09085
G1 X132.555 Y128.98 E62.11855
G1 X132.283 Y128.189 E62.14637
G1 X131.907 Y127.442 E62.17419
G1 X131.436 Y126.751 E62.202
G1 X130.877 Y126.129 E62.22982
G1 X130.24 Y125.587 E62.25763
G1 X129.64 Y125.201 E62.28136
G1 X129.64 Y87.429 E63.53766
G1 X108.838 Y87.429 E64.22954
G1 X108.838 Y131.106 E65.68224
G1 X120.225 Y131.106 E66.06098
G1 X120.259 Y131.484 E66.0736
G1 X120.265 Y131.524 E66.07495
G1 X120.371 Y132.082 E66.09384
G1 X120.381 Y132.121 E66.09518
G1 X120.551 Y132.701 E66.11528
G1 X120.778 Y133.265 E66.1355
G1 X121.059 Y133.805 E66.15575
G1 X121.392 Y134.314 E66.17598
G1 X121.771 Y134.789 E66.19619
G1 X122.194 Y135.226 E66.21642
G1 X122.658 Y135.62 E66.23666
G1 X123.158 Y135.967 E66.25691
G1 X123.689 Y136.263 E66.27713
G1 X124.246 Y136.508 E66.29736
G1 X124.824 Y136.697 E66.31759
G1 X125.418 Y136.829 E66.33783
G1 X125.982 Y136.898 E66.35673
G1 X126.017 Y136.904 E66.35791
G0 F6000 X125.974 Y137.341
G1 F3000 E61.35791
G0 F6000 X129.825 Y136.65
G0 X129.825 Y138.272
G0 X163.1 Y138.482
;TYPE:WALL-INNER
G1 F3000 E66.35791
G1 F1200 X66.9 Y138.482 E69.55753
G1 X66.9 Y75.282 E71.65957
G1 X163.1 Y75.282 E74.8592
G1 X163.1 Y138.482 E76.96124
G0 F6000 X163.5 Y138.882
;TYPE:WALL-OUTER
G1 F1200 X66.5 Y138.882 E80.18747
G1 X66.5 Y74.882 E82.31612
G1 X163.5 Y74.882 E85.54235
G1 X163.5 Y138.882 E87.671
G0 F6000 X163.23 Y138.612
G0 X162.99 Y138.092
G0 X162.71 Y138.092
;TYPE:SKIN
G1 F1200 X67.29 Y138.092 E90.84468
G1 X67.29 Y75.672 E92.92078
G1 X162.71 Y75.672 E96.09446
G1 X162.71 Y138.092 E98.17056
G1 F3000 E93.17056
G0 F6000 X162.99 Y138.092
G0 X162.918 Y138.3
G0 X156.735 Y138.272
G0 X156.735 Y134.963
G0 X157.015 Y135.163
G1 F3000 E98.17056
G1 F1200 X157.015 Y93.086 E99.57005
G1 X139.667 Y93.086 E100.14705
G1 X139.667 Y135.163 E101.54653
G1 X157.015 Y135.163 E102.12353
G1 F3000 E97.12353
G0 F6000 X156.735 Y134.913
G0 X140.229 Y134.601
G0 X139.867 Y131.941
G0 X141.322 Y131.941
G0 X131.886 Y131.161
G0 X133.336 Y131.298
G0 X133.161 Y131.941
G0 X133.437 Y131.994
G1 F3000 E102.12353
G1 F1200 X133.534 Y131.316 E102.14631
G1 X133.567 Y130.625 E102.16932
G1 X133.513 Y129.789 E102.19718
G1 X133.503 Y129.68 E102.20082
G1 X133.319 Y128.772 E102.23164
G1 X133.012 Y127.881 E102.26298
G1 X132.589 Y127.04 E102.29429
G1 X132.059 Y126.263 E102.32557
G1 X131.43 Y125.562 E102.3569
G1 X130.711 Y124.951 E102.38828
G1 X130.43 Y124.77 E102.3994
G1 X130.43 Y86.639 E103.66764
G1 X108.048 Y86.639 E104.41207
G1 X108.048 Y131.896 E105.91732
G1 X119.531 Y131.896 E106.29925
G1 X119.599 Y132.254 E106.31137
G1 X119.619 Y132.33 E106.31398
G1 X119.804 Y132.96 E106.33582
G1 X120.059 Y133.595 E106.35858
G1 X120.376 Y134.204 E106.38142
G1 X120.752 Y134.778 E106.40424
G1 X121.177 Y135.311 E106.42691
G1 X121.653 Y135.803 E106.44968
G1 X122.176 Y136.248 E106.47252
G1 X122.739 Y136.638 E106.4953
G1 X123.337 Y136.971 E106.51807
G1 X123.964 Y137.247 E106.54085
G1 X124.615 Y137.459 E106.56362
